assets/home-tab/Asset/Viewall.svg

<svg width="26" height="26" viewBox="0 0 26 26" fill="none" xmlns="http://www.w3.org/2000/svg">
<path d="M8.59086 12.8863C8.59086 11.7051 7.62438 10.7386 6.44313 10.7386C5.26189 10.7386 4.29541 11.7051 4.29541 12.8863C4.29541 14.0676 5.26189 15.0341 6.44313 15.0341C7.62438 15.0341 8.59086 14.0676 8.59086 12.8863ZM10.7386 12.8863C10.7386 14.0676 11.7051 15.0341 12.8863 15.0341C14.0676 15.0341 15.034 14.0676 15.034 12.8863C15.034 11.7051 14.0676 10.7386 12.8863 10.7386C11.7051 10.7386 10.7386 11.7051 10.7386 12.8863ZM17.1818 12.8863C17.1818 14.0676 18.1482 15.0341 19.3295 15.0341C20.5107 15.0341 21.4772 14.0676 21.4772 12.8863C21.4772 11.7051 20.5107 10.7386 19.3295 10.7386C18.1482 10.7386 17.1818 11.7051 17.1818 12.8863Z" fill="#0066B4"/>
</svg>

<svg xmlns="http://www.w3.org/2000/svg" width="26" height="26" fill="none" viewBox="0 0 26 26"><path fill="#0066b4" d="M8.59 12.886a2.154 2.154 0 0 0-2.147-2.147 2.154 2.154 0 0 0-2.148 2.147c0 1.182.967 2.148 2.148 2.148a2.154 2.154 0 0 0 2.148-2.148m2.149 0c0 1.182.966 2.148 2.147 2.148a2.154 2.154 0 0 0 2.148-2.148 2.154 2.154 0 0 0-2.148-2.147 2.154 2.154 0 0 0-2.147 2.147m6.443 0c0 1.182.966 2.148 2.148 2.148a2.154 2.154 0 0 0 2.147-2.148 2.154 2.154 0 0 0-2.148-2.147 2.154 2.154 0 0 0-2.147 2.147"/></svg>
